X:1017
L:1/8
Q:1/4=110
M:3/4
K:A
"_Key F,Time sig 6/8 in MS" c2 Ac ec | Aeec ea | c2 Ac ec | BffB df || Ac ec dc | Ac ec ea | 
 Ac ec ac | BffB df || a2 eg ae | cA aceg | a2 eg ae | dBfB df |]

